X: 23966
T: Lochiel's Awa' Tae France
R: reel
M: 4/4
K: Edorian
|:BE E2 B2 AG|FD D2 FAAd|BE E2 B2AF|GBAF E2 FA|
BE E2 B2 AG|FD D2 FAAd|B3c dfec|dBAF E3A:|
|:Beed B2 AG|FD D2 FA A2|Beed e2 de|fedf e3A|
Beed B2 AG|FD D2 FA A2|B3c dfec|dBAF E3A:|

